X:1
T:Tom the Taylor
T:Henry Purcell
%%score [ 1 2 3 ]
L:1/8
M:4/4
K:F
V:1 treble-8 nm="I"
V:2 treble-8 nm="II"
V:3 treble-8 nm="III"
V:1
|: F2 | c2 c c (dc) (BA) | d3 e f3/2 (e/ d>e) | e4 c2 C2 | D2 z2 z2 D2 | E2 z2 z2 C2 | F4 (A2 F2) | %7
w: Tom|ma- king a Man- * teau _|for a lass of _ _|plea- sure, pull'd|out, pull'd|out, pull'd|out his _|
 B4 z2 =B2 | c8- | c3 B c2 C2 | F4 F2 :| %11
w: long, his|long|_ and law- ful|mea- sure:|
V:2
|: F2 | E2 C2 F3 A | (B>A B3/2) G/ A2 F2 | c4 C2 z2 | z2 A2 F2 D2 | z2 B2 G2 E2 | z2 (d_e) c2 A2 | %7
w: But|quick- ly found tho'|woun- * * di- ly streight|lac'd Sir,|nine In- ches,|nine In- ches,|nine _ In- ches,|
 z2 d2 B2 G2 | z2 e f g3 a | (gfga) f2 z a | (a2 f4) :| %11
w: nine In- ches|wou'd not half sur-|round _ _ _ her wast|Sir: _|
V:3
|: A2 | (G/A/B) G2 A2 F2 | f3 g c2 z g | g4 e2 c2 | f2 z2 z F B A | G4 z G (cB) | A2 B G A2 f e | %7
w: Three|In- * * ches more, at|length brisk Tom ad-|van- ces, yet|all, yet all too|short, yet all, _|all, all too short, all too|
 d4 z d g f | e2 c d e3 f | (ede) f (e/f/g) e2 | f4 f2 :| %11
w: short, yet all too|short, all too short to|reach _ _ her swing- * * ging|Han- ces.|

